X: 4
T: Folding Down the Sheets
R: reel
F: https://thesession.org/tunes/14999 2019-10-7
M: 4/4
L: 1/8
K: D
ag | "D"f2df "A"ecAc | "D"d2A2 F2dc |\
[1,3 "G"BGBG "D"AFDF | "A"A,2A,2 "D"D2 :|\
[2,4 "G"BGBG "D"AFAg | "A"fdec "D"d2 :|
|: d2 |: "A"e3f gfgf | "A"ecA2 [c2a2][c2a2] |\
[1,3 "A"e2ef "G"gfeg | "A"fdec "D"d2d2 :|\
[2,4 "A"c2[ca][ca] "G"B2 [Bg][Bg] | "A"fdec "D"[f2d2] :|

%%sep 1 1 500

